web/static/img/lp/prisma-logo-gray.svg

<svg fill="none" height="46" viewBox="0 0 114 46" width="114" xmlns="http://www.w3.org/2000/svg"><g fill="#2f2f2f" fill-opacity=".5"><path d="m69.8179 30.5522h2.9993v-10.9938h-2.9993zm-.1275-13.8358c0-.9767.5441-1.4649 1.6323-1.4649 1.0879 0 1.6323.4882 1.6323 1.4649 0 .4656-.1361.8278-.408 1.0868-.2722.259-.6802.3882-1.2243.3882-1.0882 0-1.6323-.4917-1.6323-1.475z"/><path clip-rule="evenodd" d="m57.6831 24.2095c.9673-.8195 1.4507-2.0025 1.4507-3.5497 0-1.4882-.4539-2.6076-1.3618-3.3583-.908-.75-2.2337-1.1257-3.9778-1.1257h-4.5921v14.3764h3.0483v-5.1135h1.308c1.783 0 3.158-.4094 4.1247-1.2292zm-4.4296-1.2684h-1.0031v-4.2674h1.3865c.8326 0 1.4437.1701 1.834.5111.3899.341.5851.8688.5851 1.5834 0 .7076-.2327 1.2468-.6983 1.6173s-1.1667.5556-2.1042.5556z" fill-rule="evenodd"/><path d="m68.2271 19.4403c-.2688-.059-.6063-.0885-1.0128-.0885-.682 0-1.3129.1885-1.8928.5653-.5774.3739-1.0524.886-1.3819 1.4899h-.1472l-.4427-1.8486h-2.2716v10.9938h2.9993v-5.5952c0-.885.267-1.5736.8011-2.0653.5347-.4916 1.2802-.7375 2.2375-.7375.3476 0 .6423.033.8851.0983zm13.974 10.4237c.7837-.5903 1.1753-1.4486 1.1753-2.5764 0-.5441-.0947-1.0129-.285-1.4063-.19-.3934-.4854-.7406-.8851-1.0423-.3997-.3014-1.0292-.6257-1.8882-.9733-.9635-.3868-1.5878-.6788-1.8729-.8753-.2851-.1966-.4281-.4292-.4281-.6983 0-.4785.4427-.7177 1.3277-.7177.498 0 .9865.0753 1.465.2257.4784.1514.9934.3444 1.5441.5805l.9045-2.1632c-1.2521-.5767-2.5403-.8652-3.8646-.8652-1.3899 0-2.4629.267-3.2198.8013-.758.5344-1.1365 1.2896-1.1365 2.2664 0 .5705.0903 1.0507.2709 1.4406.1798.3903.4684.7361.8656 1.0375.3958.3017 1.0177.6295 1.8628.9833.59.2493 1.0622.4671 1.4164.6539.3538.1871.6031.3541.7475.5017.1441.1476.216.3392.216.5753 0 .6292-.5441.9438-1.6326.9438-.5309 0-1.1455-.0885-1.8434-.2653-.6987-.1771-1.3261-.3965-1.8834-.659v2.4781c.5093.2151 1.0401.3749 1.5834.4768.5638.1083 1.2455.1625 2.0455.1625 1.5597 0 2.7316-.2952 3.5149-.8855zm13.057.6882h-2.9993v-6.4212c0-.7931-.133-1.3882-.398-1.7847-.2659-.3966-.6836-.5952-1.2541-.5952-.7667 0-1.324.282-1.6716.8459-.3475.5638-.5211 1.4913-.5211 2.7829v5.1723h-2.9994v-10.9938h2.2914l.4031 1.4063h.1674c.2947-.5049.7211-.9 1.2781-1.1851.5573-.2851 1.1965-.4278 1.9177-.4278 1.6455 0 2.7597.5379 3.3434 1.6129h.2653c.2951-.5115.7295-.908 1.3031-1.19.5736-.2819 1.2208-.4229 1.942-.4229 1.2455 0 2.1879.3198 2.8269.9587.639.6392.959 1.6635.959 3.0729v7.1688h-3.0091v-6.4212c0-.7931-.133-1.3882-.398-1.7847-.2659-.3966-.6836-.5952-1.2541-.5952-.734 0-1.283.2625-1.6472.7868-.3636.5247-.5455 1.357-.5455 2.4976z"/><path clip-rule="evenodd" d="m111.144 29.0572.581 1.4948h2.094v-7.3261c0-1.3111-.393-2.2878-1.18-2.9302s-1.917-.9639-3.392-.9639c-1.541 0-2.944.3313-4.209.9934l.993 2.0257c1.186-.5312 2.219-.7965 3.098-.7965 1.14 0 1.711.5573 1.711 1.6715v.482l-1.908.059c-1.645.059-2.876.3656-3.693.9194-.816.5542-1.224 1.4146-1.224 2.5813 0 1.1146.303 1.9733.91 2.5764.606.6031 1.437.9045 2.493.9045.858 0 1.555-.1229 2.089-.3687.534-.2459 1.054-.6865 1.559-1.3226zm-1.465-3.5597 1.161-.0393v.9045c0 .6625-.209 1.1934-.625 1.5931-.416.4-.972.6-1.667.6-.97 0-1.455-.4229-1.455-1.2684 0-.5903.213-1.0292.639-1.3177.426-.2882 1.075-.4459 1.947-.4722zm-75.7878 10.5333-19.958 5.9028c-.6098.1806-1.1941-.3469-1.066-.9618l7.1299-34.14592c.1333-.63819 1.0159-.73958 1.2944-.14826l13.2014 28.03338c.249.5288-.035 1.1524-.6017 1.3198zm3.4226-1.3924-15.2855-32.45906v-.00069c-.1899-.3997-.4845-.74056-.8524-.98643-.3679-.245862-.7956-.387573-1.2375-.410103-.9302-.054167-1.7636.394443-2.2337 1.157993l-16.57783 26.85079c-.251846.4056-.382865.8746-.377699 1.352.005165.4774.146302.9434.406869 1.3435l8.10349 12.5528c.48299.7493 1.31977 1.183 2.18957 1.183.2465 0 .4945-.0348.7382-.107l23.5223-6.957c.3541-.1037.6818-.2822.9609-.5235.2792-.2413.5033-.5397.6572-.8751.1519-.3334.2293-.6959.2269-1.0623-.0024-.3663-.0846-.7278-.2408-1.0592z" fill-rule="evenodd"/></g></svg>

<svg width="114" height="46" viewBox="0 0 114 46" fill="none" xmlns="http://www.w3.org/2000/svg">
<path d="M69.8179 30.5522H72.8172V19.5584H69.8179V30.5522ZM69.6904 16.7164C69.6904 15.7397 70.2345 15.2515 71.3227 15.2515C72.4106 15.2515 72.955 15.7397 72.955 16.7164C72.955 17.182 72.8189 17.5442 72.547 17.8032C72.2748 18.0622 71.8668 18.1914 71.3227 18.1914C70.2345 18.1914 69.6904 17.6997 69.6904 16.7164Z" fill="#2F2F2F" fill-opacity="0.5"/>
<path fill-rule="evenodd" clip-rule="evenodd" d="M57.6831 24.2095C58.6504 23.39 59.1338 22.207 59.1338 20.6598C59.1338 19.1716 58.6799 18.0522 57.772 17.3015C56.864 16.5515 55.5383 16.1758 53.7942 16.1758H49.2021V30.5522H52.2504V25.4387H53.5584C55.3414 25.4387 56.7164 25.0293 57.6831 24.2095ZM53.2535 22.9411H52.2504V18.6737H53.6369C54.4695 18.6737 55.0806 18.8438 55.4709 19.1848C55.8608 19.5258 56.056 20.0536 56.056 20.7682C56.056 21.4758 55.8233 22.015 55.3577 22.3855C54.8921 22.756 54.191 22.9411 53.2535 22.9411Z" fill="#2F2F2F" fill-opacity="0.5"/>
<path d="M68.2271 19.4403C67.9583 19.3813 67.6208 19.3518 67.2143 19.3518C66.5323 19.3518 65.9014 19.5403 65.3215 19.9171C64.7441 20.291 64.2691 20.8031 63.9396 21.407H63.7924L63.3497 19.5584H61.0781V30.5522H64.0774V24.957C64.0774 24.072 64.3444 23.3834 64.8785 22.8917C65.4132 22.4001 66.1587 22.1542 67.116 22.1542C67.4636 22.1542 67.7583 22.1872 68.0011 22.2525L68.2271 19.4403ZM82.2011 29.864C82.9848 29.2737 83.3764 28.4154 83.3764 27.2876C83.3764 26.7435 83.2817 26.2747 83.0914 25.8813C82.9014 25.4879 82.606 25.1407 82.2063 24.839C81.8066 24.5376 81.1771 24.2133 80.3181 23.8657C79.3546 23.4789 78.7303 23.1869 78.4452 22.9904C78.1601 22.7938 78.0171 22.5612 78.0171 22.2921C78.0171 21.8136 78.4598 21.5744 79.3448 21.5744C79.8428 21.5744 80.3313 21.6497 80.8098 21.8001C81.2882 21.9515 81.8032 22.1445 82.3539 22.3806L83.2584 20.2174C82.0063 19.6407 80.7181 19.3522 79.3938 19.3522C78.0039 19.3522 76.9309 19.6192 76.174 20.1535C75.416 20.6879 75.0375 21.4431 75.0375 22.4199C75.0375 22.9904 75.1278 23.4706 75.3084 23.8605C75.4882 24.2508 75.7768 24.5966 76.174 24.898C76.5698 25.1997 77.1917 25.5275 78.0368 25.8813C78.6268 26.1306 79.099 26.3484 79.4532 26.5352C79.807 26.7223 80.0563 26.8893 80.2007 27.0369C80.3448 27.1845 80.4167 27.3761 80.4167 27.6122C80.4167 28.2414 79.8726 28.556 78.7841 28.556C78.2532 28.556 77.6386 28.4675 76.9407 28.2907C76.242 28.1136 75.6146 27.8942 75.0573 27.6317V30.1098C75.5666 30.3249 76.0974 30.4847 76.6407 30.5866C77.2045 30.6949 77.8862 30.7491 78.6862 30.7491C80.2459 30.7491 81.4178 30.4539 82.2011 29.8636V29.864ZM95.2581 30.5522H92.2588V24.131C92.2588 23.3379 92.1258 22.7428 91.8608 22.3463C91.5949 21.9497 91.1772 21.7511 90.6067 21.7511C89.84 21.7511 89.2827 22.0331 88.9351 22.597C88.5876 23.1608 88.414 24.0883 88.414 25.3799V30.5522H85.4146V19.5584H87.706L88.1091 20.9647H88.2765C88.5712 20.4598 88.9976 20.0647 89.5546 19.7796C90.1119 19.4945 90.7511 19.3518 91.4723 19.3518C93.1178 19.3518 94.232 19.8897 94.8157 20.9647H95.081C95.3761 20.4532 95.8105 20.0567 96.3841 19.7747C96.9577 19.4928 97.6049 19.3518 98.3261 19.3518C99.5716 19.3518 100.514 19.6716 101.153 20.3105C101.792 20.9497 102.112 21.974 102.112 23.3834V30.5522H99.1029V24.131C99.1029 23.3379 98.9699 22.7428 98.7049 22.3463C98.439 21.9497 98.0213 21.7511 97.4508 21.7511C96.7168 21.7511 96.1678 22.0136 95.8036 22.5379C95.44 23.0626 95.2581 23.8949 95.2581 25.0355V30.5522Z" fill="#2F2F2F" fill-opacity="0.5"/>
<path fill-rule="evenodd" clip-rule="evenodd" d="M111.144 29.0572L111.725 30.552H113.819V23.2259C113.819 21.9148 113.426 20.9381 112.639 20.2957C111.852 19.6533 110.722 19.3318 109.247 19.3318C107.706 19.3318 106.303 19.6631 105.038 20.3252L106.031 22.3509C107.217 21.8197 108.25 21.5544 109.129 21.5544C110.269 21.5544 110.84 22.1117 110.84 23.2259V23.7079L108.932 23.7669C107.287 23.8259 106.056 24.1325 105.239 24.6863C104.423 25.2405 104.015 26.1009 104.015 27.2676C104.015 28.3822 104.318 29.2409 104.925 29.844C105.531 30.4471 106.362 30.7485 107.418 30.7485C108.276 30.7485 108.973 30.6256 109.507 30.3798C110.041 30.1339 110.561 29.6933 111.066 29.0572H111.144ZM109.679 25.4975L110.84 25.4582V26.3627C110.84 27.0252 110.631 27.5561 110.215 27.9558C109.799 28.3558 109.243 28.5558 108.548 28.5558C107.578 28.5558 107.093 28.1329 107.093 27.2874C107.093 26.6971 107.306 26.2582 107.732 25.9697C108.158 25.6815 108.807 25.5238 109.679 25.4975ZM33.8912 36.0308L13.9332 41.9336C13.3234 42.1142 12.7391 41.5867 12.8672 40.9718L19.9971 6.82588C20.1304 6.18769 21.013 6.0863 21.2915 6.67762L34.4929 34.711C34.7419 35.2398 34.4579 35.8634 33.8912 36.0308ZM37.3138 34.6384L22.0283 2.17934V2.17865C21.8384 1.77895 21.5438 1.43809 21.1759 1.19222C20.808 0.946358 20.3803 0.804647 19.9384 0.782117C19.0082 0.72795 18.1748 1.17656 17.7047 1.94011L1.12687 28.7909C0.875024 29.1965 0.744005 29.6655 0.749171 30.1429C0.754336 30.6203 0.895473 31.0863 1.15604 31.4864L9.25953 44.0392C9.74252 44.7885 10.5793 45.2222 11.4491 45.2222C11.6956 45.2222 11.9436 45.1874 12.1873 45.1152L35.7096 38.1582C36.0637 38.0545 36.3914 37.876 36.6705 37.6347C36.9497 37.3934 37.1738 37.095 37.3277 36.7596C37.4796 36.4262 37.557 36.0637 37.5546 35.6973C37.5522 35.331 37.47 34.9695 37.3138 34.6381V34.6384Z" fill="#2F2F2F" fill-opacity="0.5"/>
</svg>
